static/logos/bitbucket-wordmark-color.svg

<svg width="100" height="16" viewBox="0 0 100 16" fill="none" xmlns="http://www.w3.org/2000/svg">
<path d="M0.836639 1.69376C0.771249 1.69292 0.70647 1.7064 0.646847 1.73326C0.587224 1.76011 0.534202 1.7997 0.491504 1.84923C0.448807 1.89876 0.417468 1.95703 0.39969 2.01996C0.38191 2.08289 0.378122 2.14895 0.388591 2.2135L2.29055 13.7597C2.31425 13.901 2.38697 14.0294 2.49595 14.1224C2.60493 14.2154 2.74319 14.2671 2.88646 14.2682H12.011C12.1183 14.2696 12.2227 14.2323 12.3049 14.1633C12.3871 14.0942 12.4418 13.9979 12.459 13.8918L14.3654 2.21798C14.3759 2.15343 14.3721 2.08737 14.3544 2.02444C14.3366 1.96151 14.3052 1.90324 14.2625 1.85371C14.2198 1.80418 14.1668 1.7646 14.1072 1.73774C14.0476 1.71088 13.9828 1.6974 13.9174 1.69825L0.836639 1.69376ZM8.84549 10.0386H5.93318L5.14461 5.9211H9.55115L8.84549 10.0386Z" fill="#2684FF"/>
<path d="M13.7538 5.92114H9.54894L8.84328 10.0387H5.93095L2.49219 14.1227C2.60118 14.2169 2.74014 14.2693 2.88423 14.2705H12.0109C12.1184 14.2719 12.2226 14.2346 12.3049 14.1656C12.3871 14.0965 12.4418 14.0002 12.459 13.8941L13.7538 5.92114Z" fill="url(#paint0_linear_1_3375)"/>
<path d="M26.5661 1.31763C29.2074 1.31763 30.4888 2.61921 30.4888 4.70935C30.4888 6.27751 29.7786 7.23186 28.3203 7.58802C30.2334 7.90394 31.1788 8.9479 31.1788 10.7826C31.1788 12.8526 29.7786 14.2729 26.882 14.2729H21.5391V1.31763H26.5661ZM23.3133 3.01349V6.87563H26.3287C28.0043 6.87563 28.6943 6.10726 28.6943 4.85944C28.6943 3.61163 27.9461 3.00677 26.3287 3.00677L23.3133 3.01349ZM23.3133 8.455V12.4875H26.9403C28.6361 12.4875 29.4045 11.8759 29.4045 10.5743C29.4045 9.19431 28.6742 8.44607 26.9021 8.44607L23.3133 8.455Z" fill="#253858"/>
<path d="M34.0841 0.627579C34.2424 0.616255 34.4012 0.639084 34.5498 0.694524C34.6985 0.749965 34.8335 0.836713 34.9457 0.948896C35.0579 1.06108 35.1446 1.19607 35.2 1.34471C35.2555 1.49335 35.2783 1.65218 35.267 1.81042C35.267 2.12413 35.1423 2.425 34.9205 2.64682C34.6987 2.86865 34.3978 2.99327 34.0841 2.99327C33.7704 2.99327 33.4696 2.86865 33.2477 2.64682C33.0259 2.425 32.9013 2.12413 32.9013 1.81042C32.8899 1.65218 32.9128 1.49335 32.9682 1.34471C33.0236 1.19607 33.1104 1.06108 33.2226 0.948896C33.3348 0.836713 33.4697 0.749965 33.6184 0.694524C33.767 0.639084 33.9258 0.616255 34.0841 0.627579ZM33.2172 4.41134H34.913V14.2684H33.2172V4.41134Z" fill="#253858"/>
<path d="M41.3824 12.615C41.7408 12.6043 42.0973 12.5578 42.4465 12.4761V14.1115C42.075 14.2176 41.6903 14.2705 41.304 14.2683C39.1936 14.2683 38.1676 13.0272 38.1676 11.1925V5.9884H36.5703V4.42023H38.1676V2.32336H39.8142V4.41351H42.4353V5.98167H39.8142V11.1544C39.8142 12.0214 40.3272 12.615 41.3824 12.615Z" fill="#253858"/>
<path d="M49.4338 14.4654C47.9955 14.4654 46.8911 13.8158 46.2974 12.5344V14.2683H44.6016V0.293701H46.3086V6.18552C46.9404 4.88395 48.1232 4.21412 49.6399 4.21412C52.2609 4.21412 53.5826 6.44091 53.5826 9.33978C53.5737 12.1199 52.1937 14.4654 49.4338 14.4654ZM49.1761 5.79125C47.6528 5.79125 46.3086 6.75902 46.3086 8.9455V9.73405C46.3086 11.9228 47.5497 12.8883 48.9969 12.8883C50.9101 12.8883 51.8958 11.6271 51.8958 9.33978C51.8779 6.97412 50.9324 5.79125 49.1761 5.79125Z" fill="#253858"/>
<path d="M55.3516 4.41125H57.0474V10.3748C57.0474 12.149 57.7575 12.9376 59.3728 12.9376C60.9409 12.9376 62.0342 11.8936 62.0342 9.90206V4.41125H63.7303V14.2683H62.0342V12.6531C61.7323 13.2127 61.2818 13.6782 60.7324 13.9983C60.183 14.3185 59.556 14.4809 58.9202 14.4677C56.6531 14.4677 55.3516 12.8995 55.3516 10.1889V4.41125Z" fill="#253858"/>
<path d="M73.2538 14.013C72.6626 14.3289 71.7551 14.4611 70.8481 14.4611C67.34 14.4611 65.6953 12.3328 65.6953 9.30851C65.6953 6.33128 67.3305 4.20302 70.8481 4.20302C71.6582 4.18002 72.4632 4.34648 73.1978 4.68916V6.25732C72.4978 5.92983 71.7305 5.77028 70.9576 5.79135C68.3947 5.79135 67.3507 7.40882 67.3507 9.3197C67.3507 11.2306 68.4242 12.8391 71.0073 12.8391C71.7689 12.8593 72.5286 12.7393 73.2475 12.4852L73.2538 14.013Z" fill="#253858"/>
<path d="M75.1875 14.2683V0.293701H76.8831V9.03066L81.1221 4.41798H83.3309L78.6957 9.25468L83.5259 14.2683H81.2183L76.8812 9.65562V14.2683H75.1875Z" fill="#253858"/>
<path d="M89.1385 14.4654C85.451 14.4654 83.8359 12.3372 83.8359 9.31287C83.8359 6.33564 85.4913 4.2074 88.4888 4.2074C91.524 4.2074 92.7454 6.31771 92.7454 9.31287V10.0813H85.5498C85.7869 11.757 86.8712 12.8413 89.1969 12.8413C90.2196 12.8404 91.2341 12.6598 92.1938 12.3081V13.8763C91.3856 14.3087 90.1441 14.4654 89.1385 14.4654ZM85.5315 8.64086H91.0315C90.9328 6.80834 90.1039 5.76212 88.4102 5.76212C86.6139 5.75316 85.7089 6.91582 85.5315 8.63186V8.64086Z" fill="#253858"/>
<path d="M98.6635 12.615C99.022 12.6043 99.3786 12.5578 99.7277 12.4761V14.1115C99.356 14.2176 98.9711 14.2705 98.5849 14.2683C96.4748 14.2683 95.4484 13.0272 95.4484 11.1925V5.9884H93.8516V4.42023H95.4484V2.32336H97.1044V4.41351H99.7252V5.98167H97.1044V11.1544C97.1063 12.0214 97.6151 12.615 98.6635 12.615Z" fill="#253858"/>
<defs>
<linearGradient id="paint0_linear_1_3375" x1="14.7261" y1="7.07262" x2="7.77692" y2="12.4985" gradientUnits="userSpaceOnUse">
<stop offset="0.18" stop-color="#0052CC"/>
<stop offset="1" stop-color="#2684FF"/>
</linearGradient>
</defs>
</svg>

<svg xmlns="http://www.w3.org/2000/svg" width="400" height="64" fill="none" viewBox="0 0 100 16"><path fill="#2684FF" d="M.837 1.694a.448.448 0 0 0-.448.52L2.29 13.76a.61.61 0 0 0 .595.508h9.125a.448.448 0 0 0 .448-.376l1.906-11.674a.449.449 0 0 0-.448-.52L.837 1.694Zm8.008 8.345H5.933L5.145 5.92H9.55l-.706 4.118Z"/><path fill="url(#a)" d="M13.754 5.921H9.549l-.706 4.118H5.931l-3.439 4.084a.607.607 0 0 0 .392.148h9.127a.448.448 0 0 0 .448-.377l1.295-7.973Z"/><path fill="#253858" d="M26.566 1.318c2.641 0 3.923 1.301 3.923 3.391 0 1.569-.71 2.523-2.169 2.879 1.913.316 2.859 1.36 2.859 3.195 0 2.07-1.4 3.49-4.297 3.49h-5.343V1.318h5.027Zm-3.253 1.695v3.863h3.016c1.675 0 2.365-.769 2.365-2.017 0-1.247-.748-1.852-2.365-1.852l-3.016.006Zm0 5.442v4.033h3.627c1.696 0 2.464-.612 2.464-1.914 0-1.38-.73-2.128-2.502-2.128l-3.589.009ZM34.084.628a1.106 1.106 0 0 1 1.183 1.182 1.183 1.183 0 0 1-2.366 0A1.106 1.106 0 0 1 34.084.628Zm-.867 3.783h1.696v9.857h-1.696V4.411ZM41.382 12.615c.359-.01.715-.057 1.065-.139v1.635a4.076 4.076 0 0 1-1.143.157c-2.11 0-3.136-1.24-3.136-3.075V5.988H36.57V4.42h1.598V2.323h1.646v2.09h2.621v1.569h-2.62v5.172c0 .867.512 1.461 1.567 1.461ZM49.434 14.465c-1.438 0-2.543-.65-3.137-1.93v1.733h-1.695V.294h1.707v5.892c.631-1.302 1.814-1.972 3.33-1.972 2.622 0 3.944 2.227 3.944 5.126-.01 2.78-1.39 5.125-4.15 5.125Zm-.258-8.674c-1.523 0-2.867.968-2.867 3.154v.789c0 2.189 1.24 3.154 2.688 3.154 1.913 0 2.899-1.26 2.899-3.548-.018-2.366-.964-3.549-2.72-3.549ZM55.352 4.411h1.695v5.964c0 1.774.71 2.563 2.326 2.563 1.568 0 2.661-1.044 2.661-3.036v-5.49h1.696v9.856h-1.696v-1.615a3.456 3.456 0 0 1-3.114 1.815c-2.267 0-3.568-1.569-3.568-4.28V4.412ZM73.254 14.013c-.591.316-1.499.448-2.406.448-3.508 0-5.153-2.128-5.153-5.152 0-2.978 1.636-5.106 5.153-5.106a5.21 5.21 0 0 1 2.35.486v1.568a4.968 4.968 0 0 0-2.24-.466c-2.563 0-3.607 1.618-3.607 3.529 0 1.91 1.073 3.52 3.656 3.52.762.02 1.522-.1 2.24-.355l.007 1.528ZM75.188 14.268V.294h1.695V9.03l4.24-4.613h2.208l-4.635 4.837 4.83 5.013h-2.308l-4.337-4.612v4.612h-1.694ZM89.138 14.465c-3.687 0-5.302-2.128-5.302-5.152 0-2.977 1.655-5.106 4.653-5.106 3.035 0 4.256 2.11 4.256 5.106v.768H85.55c.237 1.676 1.321 2.76 3.647 2.76a8.733 8.733 0 0 0 2.997-.533v1.568c-.808.433-2.05.59-3.056.59Zm-3.607-5.824h5.5c-.098-1.833-.927-2.879-2.62-2.879-1.797-.009-2.702 1.154-2.88 2.87v.009ZM98.663 12.615c.359-.01.716-.057 1.065-.139v1.635a4.08 4.08 0 0 1-1.143.157c-2.11 0-3.137-1.24-3.137-3.075V5.988h-1.596V4.42h1.596V2.323h1.656v2.09h2.621v1.569h-2.62v5.172c.001.867.51 1.461 1.558 1.461Z"/><defs><linearGradient id="a" x1="14.726" x2="7.777" y1="7.073" y2="12.498" gradientUnits="userSpaceOnUse"><stop offset=".18" stop-color="#0052CC"/><stop offset="1" stop-color="#2684FF"/></linearGradient></defs></svg>
